X: 0
T: The Merry Blacksmith
C: Trad.
R: reel
M: 4/4
L: 1/8
K: Dmaj
|:AB|"D"d2dA BAFA|ABdA BAFA|ABde fded|"A"Beed egfe|
"D"d3A BAFB|ABdA BAFB|"G"ABde fdec|"A"dBAF "D"D2:|
|:fg|"D"a2ag f2fe|d2dA BAFB|"G"ABde fded|"A"Beed egfg|
"D"abag fgfe|dcdA BAFB|"G"ABde fdec|"A"dBAF "D"D2:| 